X: 717
T: the Callan Lasses   #2
T: na cailini ua \.callann
R: reel
%S: s:2 b:10(5+5)
B: Francis O'Neill: "The Dance Music of Ireland" (1907) #717
Z: Frank Nordberg - http://www.musicaviva.com
F: http://www.musicaviva.com/abc/tunes/ireland/oneill-1001/0717/oneill-1001-0717-1.abc
N: Compacted via repeats and multiple endings [JC]
M: C|
L: 1/8
K: D
"^A"|:\
AD (3DDD (AD)FD | ADFA BcdB | AD (3DDD (AD)FA | GFEF GAB [1 d :|[2 c "^B":: d2(fd) AdFA |
| d2(fd) cde [1 c | d2(fd) (3(Bcd) AF | GFEF GABc :|[2 g | fdec dBAF | GFEF GABd |]
